Badges/Roblox-Styled/Original/link-check-benchmarks.svg

<svg width="153" height="32" viewBox="0 0 153 32" fill="none" xmlns="http://www.w3.org/2000/svg">
<g filter="url(#filter0_i_24_174)">
<rect width="153" height="32" rx="4" fill="#335FFF"/>
<path d="M16 10C16.8385 10 17.6458 10.1432 18.4219 10.4297L13.9922 13.9141C13.6484 14.1953 13.3776 14.5339 13.1797 14.9297C12.9766 15.3464 12.875 15.7865 12.875 16.25C12.875 16.7917 13.0104 17.2969 13.2812 17.7656C13.5469 18.2188 13.9062 18.5781 14.3594 18.8438C14.8281 19.1146 15.3333 19.25 15.875 19.25C16.3854 19.25 16.8646 19.1276 17.3125 18.8828C17.7396 18.6484 18.0911 18.3281 18.3672 17.9219L21.8984 13.2266C22.2526 13.7786 22.5234 14.3698 22.7109 15C22.9036 15.651 23 16.3177 23 17C23 17.9635 22.8125 18.8828 22.4375 19.7578C22.0729 20.6068 21.5599 21.3542 20.8984 22H11.1016C10.4401 21.3542 9.92708 20.6068 9.5625 19.7578C9.1875 18.8828 9 17.9635 9 17C9 16.0521 9.18229 15.1432 9.54688 14.2734C9.90104 13.4349 10.401 12.6927 11.0469 12.0469C11.6927 11.401 12.4349 10.901 13.2734 10.5469C14.1432 10.1823 15.0521 10 16 10ZM21.3281 10.0547C21.4219 9.98177 21.5208 9.95052 21.625 9.96094C21.7344 9.97135 21.8255 10.0156 21.8984 10.0938C21.9766 10.1667 22.0208 10.2552 22.0312 10.3594C22.0469 10.4635 22.0182 10.5651 21.9453 10.6641L17.1484 17.0391C17.013 17.2578 16.8333 17.4323 16.6094 17.5625C16.3854 17.6875 16.138 17.75 15.8672 17.75C15.6016 17.75 15.3542 17.6823 15.125 17.5469C14.8958 17.4115 14.7135 17.2292 14.5781 17C14.4427 16.7708 14.375 16.5208 14.375 16.25C14.375 16.0156 14.4245 15.7969 14.5234 15.5938C14.6224 15.3906 14.7604 15.2214 14.9375 15.0859L21.3281 10.0547Z" fill="white"/>
<path d="M31.927 20.11C29.837 20.11 28.374 18.614 28.374 16.15C28.374 13.686 29.837 12.19 31.927 12.19C33.148 12.19 34.193 12.663 34.842 13.521L33.775 14.577C33.214 13.917 32.642 13.642 31.927 13.642C30.662 13.642 29.892 14.522 29.892 16.15C29.892 17.778 30.662 18.658 31.927 18.658C32.642 18.658 33.214 18.383 33.775 17.723L34.842 18.779C34.193 19.637 33.148 20.11 31.927 20.11ZM37.1594 20H35.7514V12.19H37.1594V15.05L37.3354 15.116C37.6104 14.566 38.1384 14.126 38.9964 14.126C40.2834 14.126 40.9654 14.995 40.9654 16.293V20H39.5574V16.667C39.5574 15.798 39.1394 15.424 38.4024 15.424C37.8194 15.424 37.3574 15.798 37.1594 16.194V20ZM44.9866 20.11C43.2156 20.11 42.0606 18.911 42.0606 17.129C42.0606 15.347 43.2156 14.126 44.8656 14.126C46.6476 14.126 47.5386 15.347 47.5386 17.052V17.547H43.4796C43.6006 18.449 44.1726 18.834 44.9866 18.834C45.5806 18.834 46.0316 18.647 46.4826 18.273L47.3296 19.285C46.7136 19.857 45.8336 20.11 44.9866 20.11ZM44.8656 15.314C44.1616 15.314 43.6996 15.677 43.5236 16.403H46.1416C46.0536 15.71 45.5916 15.314 44.8656 15.314ZM51.216 20.11C49.478 20.11 48.334 18.9 48.334 17.118C48.334 15.336 49.478 14.126 51.216 14.126C52.118 14.126 52.987 14.489 53.493 15.138L52.547 16.084C52.228 15.699 51.755 15.424 51.183 15.424C50.347 15.424 49.764 16.04 49.764 17.118C49.764 18.196 50.347 18.812 51.183 18.812C51.755 18.812 52.228 18.537 52.547 18.152L53.493 19.098C52.987 19.747 52.118 20.11 51.216 20.11ZM59.5453 14.236L57.5323 16.92V17.052L59.5453 20H57.8843L56.1903 17.569H55.9153V20H54.5072V12.19H55.9153V16.392H56.1903L57.7853 14.236H59.5453ZM66.3327 20H63.2857V12.3H66.2667C67.9167 12.3 68.7417 13.037 68.7417 14.313C68.7417 15.028 68.4447 15.512 67.9497 15.831V16.007C68.5437 16.216 69.0607 16.7 69.0607 17.701C69.0607 19.142 68.2797 20 66.3327 20ZM64.7817 13.708V15.292H66.2557C66.9487 15.292 67.2457 14.984 67.2457 14.478C67.2457 14.016 66.9487 13.708 66.2557 13.708H64.7817ZM64.7817 16.656V18.592H66.4207C67.0807 18.592 67.5427 18.306 67.5427 17.624C67.5427 16.942 67.0807 16.656 66.4207 16.656H64.7817ZM72.8196 20.11C71.0486 20.11 69.8936 18.911 69.8936 17.129C69.8936 15.347 71.0486 14.126 72.6986 14.126C74.4806 14.126 75.3716 15.347 75.3716 17.052V17.547H71.3126C71.4336 18.449 72.0056 18.834 72.8196 18.834C73.4136 18.834 73.8646 18.647 74.3156 18.273L75.1626 19.285C74.5466 19.857 73.6666 20.11 72.8196 20.11ZM72.6986 15.314C71.9946 15.314 71.5326 15.677 71.3566 16.403H73.9746C73.8866 15.71 73.4246 15.314 72.6986 15.314ZM77.883 20H76.475V14.236H77.883V15.05L78.059 15.116C78.345 14.555 78.862 14.126 79.72 14.126C80.996 14.126 81.689 14.995 81.689 16.293V20H80.281V16.667C80.281 15.798 79.841 15.424 79.148 15.424C78.576 15.424 78.114 15.743 77.883 16.194V20ZM85.6662 20.11C83.9282 20.11 82.7842 18.9 82.7842 17.118C82.7842 15.336 83.9282 14.126 85.6662 14.126C86.5682 14.126 87.4372 14.489 87.9432 15.138L86.9972 16.084C86.6782 15.699 86.2052 15.424 85.6332 15.424C84.7972 15.424 84.2142 16.04 84.2142 17.118C84.2142 18.196 84.7972 18.812 85.6332 18.812C86.2052 18.812 86.6782 18.537 86.9972 18.152L87.9432 19.098C87.4372 19.747 86.5682 20.11 85.6662 20.11ZM90.3654 20H88.9574V12.19H90.3654V15.05L90.5414 15.116C90.8164 14.566 91.3444 14.126 92.2024 14.126C93.4894 14.126 94.1714 14.995 94.1714 16.293V20H92.7634V16.667C92.7634 15.798 92.3454 15.424 91.6084 15.424C91.0254 15.424 90.5634 15.798 90.3654 16.194V20ZM96.9826 20H95.5746V14.236H96.9826V15.05L97.1586 15.116C97.4116 14.555 97.8846 14.126 98.6436 14.126C99.4246 14.126 99.8646 14.467 100.162 15.05H100.338C100.756 14.522 101.185 14.126 102.076 14.126C103.22 14.126 103.847 14.962 103.847 16.216V20H102.439V16.447C102.439 15.765 102.131 15.424 101.537 15.424C101.02 15.424 100.613 15.71 100.415 16.117V20H99.0066V16.447C99.0066 15.765 98.6986 15.424 98.1376 15.424C97.5876 15.424 97.1806 15.71 96.9826 16.117V20ZM106.782 20.11C105.814 20.11 104.945 19.516 104.945 18.295C104.945 17.195 105.737 16.48 107.288 16.48H108.63V16.381C108.63 15.6 108.168 15.336 107.563 15.336C106.925 15.336 106.419 15.611 105.803 16.073L105.132 15.028C105.836 14.5 106.65 14.126 107.596 14.126C109.015 14.126 110.038 14.709 110.038 16.337V20H108.63V19.351L108.454 19.285C108.058 19.824 107.541 20.11 106.782 20.11ZM107.244 18.9C107.86 18.9 108.344 18.559 108.63 18.152V17.492H107.266C106.683 17.492 106.353 17.734 106.353 18.196C106.353 18.625 106.716 18.9 107.244 18.9ZM112.903 20H111.495V14.236H112.903V15.05L113.079 15.116C113.398 14.489 113.926 14.126 114.608 14.126C114.773 14.126 114.949 14.148 115.103 14.181V15.6C114.883 15.523 114.608 15.468 114.256 15.468C113.651 15.468 113.145 15.842 112.903 16.348V20ZM121.001 14.236L118.988 16.92V17.052L121.001 20H119.34L117.646 17.569H117.371V20H115.963V12.19H117.371V16.392H117.646L119.241 14.236H121.001ZM123.712 20.11C122.722 20.11 121.974 19.758 121.325 19.23L122.073 18.218C122.546 18.625 123.085 18.9 123.712 18.9C124.306 18.9 124.625 18.702 124.625 18.339C124.625 17.976 124.361 17.866 123.921 17.778L123.184 17.624C122.183 17.415 121.589 16.92 121.589 15.974C121.589 14.83 122.414 14.126 123.745 14.126C124.581 14.126 125.34 14.379 125.934 14.918L125.153 15.886C124.724 15.534 124.262 15.336 123.723 15.336C123.316 15.336 122.953 15.49 122.953 15.82C122.953 16.084 123.129 16.26 123.69 16.381L124.504 16.557C125.373 16.744 126.022 17.195 126.022 18.152C126.022 19.384 125.109 20.11 123.712 20.11Z" fill="white"/>
<path d="M136.625 11.1875C136.781 11.1875 136.914 11.2422 137.023 11.3516C137.133 11.4609 137.188 11.5938 137.188 11.75C137.188 11.9062 137.133 12.0391 137.023 12.1484C136.914 12.2578 136.781 12.3125 136.625 12.3125H133.062V20.1875H140.938V16.625C140.938 16.4688 140.992 16.3359 141.102 16.2266C141.211 16.1172 141.344 16.0625 141.5 16.0625C141.656 16.0625 141.789 16.1172 141.898 16.2266C142.008 16.3359 142.062 16.4688 142.062 16.625V20.375C142.062 20.543 142.02 20.6992 141.934 20.8438C141.852 20.9883 141.738 21.1016 141.594 21.1836C141.449 21.2695 141.293 21.3125 141.125 21.3125H132.875C132.707 21.3125 132.551 21.2695 132.406 21.1836C132.262 21.1016 132.146 20.9883 132.061 20.8438C131.979 20.6992 131.938 20.543 131.938 20.375V12.125C131.938 11.957 131.979 11.8008 132.061 11.6562C132.146 11.5117 132.262 11.3984 132.406 11.3164C132.551 11.2305 132.707 11.1875 132.875 11.1875H136.625ZM141.5 11.1875C141.656 11.1875 141.789 11.2422 141.898 11.3516C142.008 11.4609 142.062 11.5938 142.062 11.75V14C142.062 14.1562 142.008 14.2891 141.898 14.3984C141.789 14.5078 141.656 14.5625 141.5 14.5625C141.344 14.5625 141.211 14.5078 141.102 14.3984C140.992 14.2891 140.938 14.1562 140.938 14V13.1094L137.398 16.6484C137.289 16.7578 137.156 16.8125 137 16.8125C136.844 16.8125 136.711 16.7578 136.602 16.6484C136.492 16.5391 136.438 16.4062 136.438 16.25C136.438 16.0938 136.492 15.9609 136.602 15.8516L140.141 12.3125H139.25C139.094 12.3125 138.961 12.2578 138.852 12.1484C138.742 12.0391 138.688 11.9062 138.688 11.75C138.688 11.5938 138.742 11.4609 138.852 11.3516C138.961 11.2422 139.094 11.1875 139.25 11.1875H141.5Z" fill="white"/>
</g>
<defs>
<filter id="filter0_i_24_174" x="0" y="-2" width="153" height="34" filterUnits="userSpaceOnUse" color-interpolation-filters="sRGB">
<feFlood flood-opacity="0" result="BackgroundImageFix"/>
<feBlend mode="normal" in="SourceGraphic" in2="BackgroundImageFix" result="shape"/>
<feColorMatrix in="SourceAlpha" type="matrix" values="0 0 0 0 0 0 0 0 0 0 0 0 0 0 0 0 0 0 127 0" result="hardAlpha"/>
<feOffset dy="-2"/>
<feGaussianBlur stdDeviation="1.65"/>
<feComposite in2="hardAlpha" operator="arithmetic" k2="-1" k3="1"/>
<feColorMatrix type="matrix" values="0 0 0 0 1 0 0 0 0 1 0 0 0 0 1 0 0 0 0.11 0"/>
<feBlend mode="normal" in2="shape" result="effect1_innerShadow_24_174"/>
</filter>
</defs>
</svg>

<svg xmlns="http://www.w3.org/2000/svg" width="153" height="32" fill="none">
  <g filter="url(#a)">
    <rect width="153" height="32" fill="#335fff" rx="4"/>
    <path fill="#fff" d="M16 10q1.258 0 2.422.43l-4.43 3.484q-.515.422-.812 1.016a3 3 0 0 0-.305 1.32q0 .813.406 1.516.399.68 1.078 1.078.704.406 1.516.406.765 0 1.438-.367a3 3 0 0 0 1.054-.961l3.531-4.695q.532.828.813 1.773A7 7 0 0 1 23 17q0 1.445-.562 2.758A6.9 6.9 0 0 1 20.898 22h-9.796a6.9 6.9 0 0 1-1.54-2.242A6.9 6.9 0 0 1 9 17q0-1.422.547-2.727a6.9 6.9 0 0 1 1.5-2.226 6.9 6.9 0 0 1 2.226-1.5A7 7 0 0 1 16 10m5.328.055a.415.415 0 0 1 .57.04.4.4 0 0 1 .133.264.4.4 0 0 1-.086.305l-4.797 6.375a1.5 1.5 0 0 1-.539.523 1.5 1.5 0 0 1-.742.188q-.398 0-.742-.203a1.5 1.5 0 0 1-.547-.547 1.45 1.45 0 0 1-.203-.75q0-.351.148-.656.149-.305.415-.508zM31.927 20.11c-2.09 0-3.553-1.496-3.553-3.96s1.463-3.96 3.553-3.96c1.221 0 2.266.473 2.915 1.331l-1.067 1.056c-.561-.66-1.133-.935-1.848-.935-1.265 0-2.035.88-2.035 2.508s.77 2.508 2.035 2.508c.715 0 1.287-.275 1.848-.935l1.067 1.056c-.649.858-1.694 1.331-2.915 1.331m5.232-.11h-1.408v-7.81h1.408v2.86l.176.066c.275-.55.803-.99 1.661-.99 1.287 0 1.97.869 1.97 2.167V20h-1.409v-3.333c0-.869-.418-1.243-1.155-1.243-.583 0-1.045.374-1.243.77zm7.828.11c-1.771 0-2.926-1.199-2.926-2.981s1.155-3.003 2.805-3.003c1.782 0 2.673 1.221 2.673 2.926v.495h-4.06c.122.902.694 1.287 1.508 1.287.594 0 1.045-.187 1.496-.561l.847 1.012c-.616.572-1.496.825-2.343.825m-.121-4.796c-.704 0-1.166.363-1.342 1.089h2.618c-.088-.693-.55-1.089-1.276-1.089m6.35 4.796c-1.738 0-2.882-1.21-2.882-2.992s1.144-2.992 2.882-2.992c.902 0 1.771.363 2.277 1.012l-.946.946a1.76 1.76 0 0 0-1.364-.66c-.836 0-1.419.616-1.419 1.694s.583 1.694 1.419 1.694a1.76 1.76 0 0 0 1.364-.66l.946.946c-.506.649-1.375 1.012-2.277 1.012m8.33-5.874-2.014 2.684v.132L59.545 20h-1.66l-1.695-2.431h-.275V20h-1.408v-7.81h1.408v4.202h.275l1.595-2.156zM66.332 20h-3.047v-7.7h2.98c1.65 0 2.476.737 2.476 2.013 0 .715-.297 1.199-.792 1.518v.176c.594.209 1.11.693 1.11 1.694 0 1.441-.78 2.299-2.727 2.299m-1.551-6.292v1.584h1.474c.693 0 .99-.308.99-.814 0-.462-.297-.77-.99-.77zm0 2.948v1.936h1.639c.66 0 1.122-.286 1.122-.968s-.462-.968-1.122-.968zm8.038 3.454c-1.771 0-2.926-1.199-2.926-2.981s1.155-3.003 2.805-3.003c1.782 0 2.673 1.221 2.673 2.926v.495h-4.06c.122.902.694 1.287 1.508 1.287.594 0 1.045-.187 1.496-.561l.847 1.012c-.616.572-1.496.825-2.343.825m-.121-4.796c-.704 0-1.166.363-1.342 1.089h2.618c-.088-.693-.55-1.089-1.276-1.089M77.883 20h-1.408v-5.764h1.408v.814l.176.066c.286-.561.803-.99 1.661-.99 1.276 0 1.969.869 1.969 2.167V20h-1.408v-3.333c0-.869-.44-1.243-1.133-1.243-.572 0-1.034.319-1.265.77zm7.783.11c-1.738 0-2.882-1.21-2.882-2.992s1.144-2.992 2.882-2.992c.902 0 1.771.363 2.277 1.012l-.946.946a1.76 1.76 0 0 0-1.364-.66c-.836 0-1.419.616-1.419 1.694s.583 1.694 1.42 1.694a1.76 1.76 0 0 0 1.363-.66l.946.946c-.506.649-1.375 1.012-2.277 1.012m4.7-.11h-1.409v-7.81h1.408v2.86l.176.066c.275-.55.803-.99 1.661-.99 1.287 0 1.97.869 1.97 2.167V20h-1.409v-3.333c0-.869-.418-1.243-1.155-1.243-.583 0-1.045.374-1.243.77zm6.617 0h-1.408v-5.764h1.408v.814l.176.066c.253-.561.726-.99 1.485-.99.78 0 1.22.341 1.518.924h.176c.418-.528.847-.924 1.738-.924 1.144 0 1.771.836 1.771 2.09V20h-1.408v-3.553c0-.682-.308-1.023-.902-1.023-.517 0-.924.286-1.122.693V20h-1.408v-3.553c0-.682-.308-1.023-.87-1.023-.55 0-.956.286-1.154.693zm9.799.11c-.968 0-1.837-.594-1.837-1.815 0-1.1.792-1.815 2.343-1.815h1.342v-.099c0-.781-.462-1.045-1.067-1.045-.638 0-1.144.275-1.76.737l-.671-1.045c.704-.528 1.518-.902 2.464-.902 1.419 0 2.442.583 2.442 2.211V20h-1.408v-.649l-.176-.066c-.396.539-.913.825-1.672.825m.462-1.21c.616 0 1.1-.341 1.386-.748v-.66h-1.364c-.583 0-.913.242-.913.704 0 .429.363.704.891.704m5.659 1.1h-1.408v-5.764h1.408v.814l.176.066c.319-.627.847-.99 1.529-.99.165 0 .341.022.495.055V15.6a2.5 2.5 0 0 0-.847-.132c-.605 0-1.111.374-1.353.88zm8.098-5.764-2.013 2.684v.132L121.001 20h-1.661l-1.694-2.431h-.275V20h-1.408v-7.81h1.408v4.202h.275l1.595-2.156zm2.711 5.874c-.99 0-1.738-.352-2.387-.88l.748-1.012c.473.407 1.012.682 1.639.682.594 0 .913-.198.913-.561s-.264-.473-.704-.561l-.737-.154c-1.001-.209-1.595-.704-1.595-1.65 0-1.144.825-1.848 2.156-1.848.836 0 1.595.253 2.189.792l-.781.968c-.429-.352-.891-.55-1.43-.55-.407 0-.77.154-.77.484 0 .264.176.44.737.561l.814.176c.869.187 1.518.638 1.518 1.595 0 1.232-.913 1.958-2.31 1.958m12.913-8.922q.234 0 .398.164a.54.54 0 0 1 .165.398.54.54 0 0 1-.165.398.54.54 0 0 1-.398.165h-3.563v7.874h7.876v-3.562a.54.54 0 0 1 .164-.398.54.54 0 0 1 .398-.165q.234 0 .398.165a.54.54 0 0 1 .164.398v3.75a.9.9 0 0 1-.128.469.9.9 0 0 1-.34.34.9.9 0 0 1-.469.128h-8.25a.9.9 0 0 1-.469-.128.9.9 0 0 1-.345-.34.93.93 0 0 1-.123-.469v-8.25q0-.252.123-.469a.9.9 0 0 1 .345-.34.9.9 0 0 1 .469-.129zm4.875 0q.234 0 .398.164a.54.54 0 0 1 .164.398V14a.54.54 0 0 1-.164.398.54.54 0 0 1-.398.165.54.54 0 0 1-.398-.165.54.54 0 0 1-.164-.398v-.89l-3.54 3.538a.54.54 0 0 1-.398.165.54.54 0 0 1-.398-.165.54.54 0 0 1-.164-.398.54.54 0 0 1 .164-.398l3.539-3.54h-.891a.54.54 0 0 1-.398-.164.54.54 0 0 1-.164-.398.54.54 0 0 1 .164-.398.54.54 0 0 1 .398-.165z"/>
  </g>
  <defs>
    <filter id="a" width="153" height="34" x="0" y="-2" color-interpolation-filters="sRGB" filterUnits="userSpaceOnUse">
      <feFlood flood-opacity="0" result="BackgroundImageFix"/>
      <feBlend in="SourceGraphic" in2="BackgroundImageFix" result="shape"/>
      <feColorMatrix in="SourceAlpha" result="hardAlpha" values="0 0 0 0 0 0 0 0 0 0 0 0 0 0 0 0 0 0 127 0"/>
      <feOffset dy="-2"/>
      <feGaussianBlur stdDeviation="1.65"/>
      <feComposite in2="hardAlpha" k2="-1" k3="1" operator="arithmetic"/>
      <feColorMatrix values="0 0 0 0 1 0 0 0 0 1 0 0 0 0 1 0 0 0 0.11 0"/>
      <feBlend in2="shape" result="effect1_innerShadow_24_174"/>
    </filter>
  </defs>
</svg>
